icons/notification.svg

<svg width="24" height="24" viewBox="0 0 24 24" fill="none" xmlns="http://www.w3.org/2000/svg">
<path fill-rule="evenodd" clip-rule="evenodd" d="M12.0499 3.59998C8.5641 3.59998 5.69989 6.46419 5.69989 9.94998V13.55C5.69989 13.8373 5.77099 14.1415 5.87297 14.55C5.95489 14.8448 5.84779 15.1625 5.60351 15.3475C5.56366 15.3778 5.52043 15.4043 5.47422 15.4264C5.37511 15.476 5.29819 15.5148 5.23459 15.5512C5.20302 15.5692 5.18257 15.5822 5.17047 15.5907L5.16941 15.5914C4.94793 15.8204 4.79999 16.2061 4.79999 16.65C4.79999 17.4358 5.4642 18.1 6.24999 18.1H17.75C18.2011 18.1 18.5921 17.9472 18.8197 17.7196C19.0472 17.4921 19.2 17.1011 19.2 16.65C19.2 16.1213 18.9466 15.6748 18.4911 15.4088C18.3592 15.3371 18.2541 15.2282 18.1862 15.0993C18.1184 14.9707 18.0877 14.8221 18.104 14.6705C18.1081 14.6318 18.1153 14.5932 18.1256 14.555C18.166 14.3965 18.2263 14.2151 18.2734 14.0735L18.2734 14.0735L18.2734 14.0735C18.2923 14.0166 18.3091 13.9662 18.3215 13.9263C18.3785 13.7439 18.3999 13.6325 18.3999 13.55V9.94998C18.3999 8.26002 17.687 6.64773 16.5196 5.48031C15.3479 4.30864 13.8342 3.59998 12.0499 3.59998ZM19.7261 14.4591C19.7348 14.4322 19.7438 14.4039 19.7533 14.3737C19.8212 14.1561 19.8999 13.8674 19.8999 13.55V9.94998C19.8999 7.83993 19.0128 5.85223 17.5802 4.41965C16.1519 2.99131 14.2656 2.09998 12.0499 2.09998C7.73568 2.09998 4.19989 5.63576 4.19989 9.94998V13.55C4.19989 13.8358 4.23996 14.1161 4.29203 14.3748C4.23406 14.4165 4.17453 14.4648 4.11966 14.5196C3.54718 15.0921 3.29999 15.9011 3.29999 16.65C3.29999 18.2642 4.63577 19.6 6.24999 19.6H8.97359C9.27418 20.9076 10.4587 21.9 11.85 21.9C13.2413 21.9 14.4257 20.9076 14.7263 19.6H17.75C18.4988 19.6 19.3078 19.3528 19.8803 18.7803C20.4528 18.2078 20.7 17.3988 20.7 16.65C20.7 15.7928 20.3499 15.0107 19.7261 14.4591ZM13.1404 19.6H10.5596C10.8026 20.07 11.2961 20.4 11.85 20.4C12.4038 20.4 12.8973 20.07 13.1404 19.6Z" fill="black"/>
</svg>

<svg xmlns="http://www.w3.org/2000/svg" fill="none" viewBox="0 0 24 24">
  <path fill="#000" fill-rule="evenodd" d="M12.05 3.6C8.564 3.6 5.7 6.464 5.7 9.95v3.6c0 .287.071.591.173 1a.75.75 0 0 1-.399.876c-.099.05-.176.089-.24.125a.85.85 0 0 0-.064.04c-.222.23-.37.615-.37 1.059 0 .786.664 1.45 1.45 1.45h11.5c.451 0 .842-.153 1.07-.38.227-.228.38-.619.38-1.07 0-.529-.253-.975-.709-1.241a.75.75 0 0 1-.365-.854c.04-.159.1-.34.147-.482.02-.056.036-.107.049-.147a1.36 1.36 0 0 0 .078-.376v-3.6c0-1.69-.713-3.302-1.88-4.47-1.172-1.171-2.686-1.88-4.47-1.88Zm7.676 10.86.027-.086c.068-.218.147-.507.147-.824v-3.6c0-2.11-.887-4.098-2.32-5.53-1.428-1.429-3.314-2.32-5.53-2.32-4.314 0-7.85 3.536-7.85 7.85v3.6c0 .286.04.566.092.825-.058.041-.117.09-.172.145-.573.572-.82 1.381-.82 2.13a2.97 2.97 0 0 0 2.95 2.95h2.724c.3 1.308 1.485 2.3 2.876 2.3 1.391 0 2.576-.992 2.876-2.3h3.024c.749 0 1.558-.247 2.13-.82.573-.572.82-1.381.82-2.13 0-.857-.35-1.64-.974-2.19ZM13.14 19.6h-2.58c.243.47.736.8 1.29.8a1.47 1.47 0 0 0 1.29-.8Z" clip-rule="evenodd"/>
</svg>
